X: 1
T:Happy to Meet and Sorry to Part
C:Trad
R:Jig
M:6/8
Z:Horslips
K:G
L:1/8
gf |edc BAB |GEF G2A | Bdd Bee| Bdd dge|
|dBG AGE | DEG G2A | Bed B2A |1 BGG Ggf :|2 BGG Gef |
|: gag fed | Bdd def | gag fed | Bee e2f |
|gag gfe |1 dBd g2e | dBG AGE | DEG Gef :|2 dBd g2f | gfg eag | fef g|
